symbolic/22x22/places/folder-white-onedrive.svg

<svg xmlns="http://www.w3.org/2000/svg" width="22" height="22" version="1">
 <rect style="opacity:0.2" width="20" height="12" x="1" y="8.5" rx="1" ry="1"/>
 <path style="fill:#cccccc" d="M 1,16 C 1,16.554 1.446,17 2,17 H 20 C 20.554,17 21,16.554 21,16 V 5 C 21,4.446 20.554,4 20,4 H 11 C 9.5,4 9,2 7.5,2 H 2 C 1.446,2 1,2.446 1,3"/>
 <rect style="opacity:0.2" width="20" height="12" x="1" y="7.5" rx="1" ry="1"/>
 <rect style="fill:#ffffff" width="16" height="8" x="3" y="6" rx="1" ry="1"/>
 <rect style="fill:#e4e4e4" width="20" height="12" x="1" y="8" rx="1" ry="1"/>
 <path style="opacity:0.1;fill:#ffffff" d="M 2,2 C 1.446,2 1,2.446 1,3 V 3.5 C 1,2.946 1.446,2.5 2,2.5 H 7.5 C 9,2.5 9.5,4.5 11,4.5 H 20 C 20.554,4.5 21,4.946 21,5.5 V 5 C 21,4.446 20.554,4 20,4 H 11 C 9.5,4 9,2 7.5,2 Z"/>
 <path style="fill:#4f4f4f" d="M 11.5,10 C 10.628265,10.0011 9.820081,10.456316 9.367187,11.201172 9.096909,11.069817 8.8005048,11.001057 8.4999998,11 c -1.104569,0 -2,0.89543 -2,2 2.94e-4,0.0065 5.76e-4,0.01302 9.77e-4,0.01953 -0.860819,0.123751 -1.500121,0.860825 -1.500977,1.73047 0,0.966498 0.783502,1.75 1.75,1.75 0.317187,-0.0012 0.628072,-0.08867 0.899414,-0.25293 -0.0943,-0.231426 -0.149414,-0.483099 -0.149414,-0.74707 0,-0.951457 0.689254,-1.716824 1.5839842,-1.915039 C 9.289857,12.413677 10.272138,11.5 11.5,11.5 h 9.76e-4 c 0.822411,10e-4 1.518645,0.467044 1.980469,1.125976 C 13.654023,12.578196 13.819683,12.500163 14,12.5 14,11.119288 12.880712,10 11.5,10 Z m 0,2 A 2,2 0 0 0 9.5,14 1.5,1.5 0 0 0 7.9999998,15.5 1.5,1.5 0 0 0 9.5,17 h 6.25 A 1.25,1.25 0 0 0 17,15.75 1.25,1.25 0 0 0 15.75,14.5 1.25,1.25 0 0 0 15.499023,14.52734 1.5,1.5 0 0 0 15.5,14.5 1.5,1.5 0 0 0 14,13 1.5,1.5 0 0 0 13.315429,13.166015 2,2 0 0 0 11.5,12 Z"/>
</svg>

<svg xmlns="http://www.w3.org/2000/svg" width="22" height="22" version="1"><rect style="opacity:.2" width="20" height="12" x="1" y="8.5" rx="1" ry="1"/><path style="fill:#ccc" d="M1 16c0 .554.446 1 1 1h18c.554 0 1-.446 1-1V5c0-.554-.446-1-1-1h-9C9.5 4 9 2 7.5 2H2c-.554 0-1 .446-1 1"/><rect style="opacity:.2" width="20" height="12" x="1" y="7.5" rx="1" ry="1"/><rect style="fill:#fff" width="16" height="8" x="3" y="6" rx="1" ry="1"/><rect style="fill:#e4e4e4" width="20" height="12" x="1" y="8" rx="1" ry="1"/><path style="opacity:.1;fill:#fff" d="M2 2c-.554 0-1 .446-1 1v.5c0-.554.446-1 1-1h5.5c1.5 0 2 2 3.5 2h9c.554 0 1 .446 1 1V5c0-.554-.446-1-1-1h-9C9.5 4 9 2 7.5 2z"/><path style="fill:#4f4f4f" d="M11.5 10a2.5 2.5 0 0 0-2.133 1.201A2 2 0 0 0 8.5 11a2 2 0 0 0-2 2l.001.02a1.75 1.75 0 0 0 .249 3.48 1.75 1.75 0 0 0 .9-.253 1.975 1.975 0 0 1-.15-.747c0-.951.69-1.717 1.584-1.915.206-1.171 1.188-2.085 2.416-2.085h.001c.822.001 1.519.467 1.98 1.126.173-.048.339-.126.519-.126a2.5 2.5 0 0 0-2.5-2.5zm0 2a2 2 0 0 0-2 2A1.5 1.5 0 0 0 8 15.5 1.5 1.5 0 0 0 9.5 17h6.25A1.25 1.25 0 0 0 17 15.75a1.25 1.25 0 0 0-1.25-1.25 1.25 1.25 0 0 0-.251.027 1.5 1.5 0 0 0 .001-.027A1.5 1.5 0 0 0 14 13a1.5 1.5 0 0 0-.685.166A2 2 0 0 0 11.5 12z"/></svg>
